!!!ONB: MCCC : IJB0065_01 : Extracted Monophonic Melody
!!!COM: Bach, Johann Sebastian
!!!OPR: Cello Suite No.3
!!!OMV: 1
!!!SCT: BWV 1009
!!!ODT: 1717///
**kern
*staff1
*IP1
*clefF4
*k[]
*C:
*M3/4
=1-
8c
16B
16A
16G
16F
16E
16D
16C
16GG
16EE
16GG
=2
[4CC
16CC]
16DD
16EE
16FF
16GG
16AA
16BB
16C
=3
16D
16C
16BB
16AA
16GG
16AA
16BB
16C
16D
16E
16F
16D
=4
16E
16F
16E
16D
16C
16D
16E
16F
16G
16A
16B
16c
=5
16d
16c
16B
16A
16G
16A
16B
16c
16d
16e
16f
16d
=6
16e
16f
16e
16d
16c
16c
16B
16A
16G
16F
16E
16D
=7
16C
16B
16c
16d
16e
16d
16c
16B
16A
16c
16G
16c
=8
16F#
16E
16F#
16G
16A
16G
16F#
16E
16D
16F#
16C
16F#
=9
16BB
16A
16B
16c
16d
16c
16B
16A
16G
16B
16F#
16B
=10
16E
16D
16E
16F#
16G
16F#
16E
16D
16C
16E
16BB
16E
=11
16AA
16G
16A
16B
16c
16B
16A
16G
16F#
16A
16E
16A
=12
16D
16C
16D
16E
16F#
16E
16D
16C
16BB
16D
16AA
16D
=13
16GG
16D
16E
16F#
16G
16A
16B
16c
16d
16c
16B
16A
=14
16B
16c
16d
16c
16B
16A
16G
16A
16B
16A
16G
16F
=15
16E
16G
16E
16C#
16AA
16BB
16C#
16D
16E
16F
16G
16E
=16
16F
16d
16A
16F
16D
16E
16F
16G
16A
16B
16c
16A
=17
16B
16d
16B
16G#
16E
16F#
16G#
16A
16B
16c
16d
16B
=18
16c
16d
16c
16B
16A
16F
16E
16D
16C
16BB
16AA
16GG
=19
16FF
16AA
16BB
16C#
16D
16E
16F
16D
16B
16G#
16A
16D
=20
16EE
16BB
16D
16A
16G#
16B
16E
16G#
16B
16d
16c
16G#
=21
16A
16D#
16A
16B
16A
16D#
16A
16B
16A
16D#
16A
16B
=22
16c
16E
16A
16B
16c
16E
16A
16B
16c
16E
16B
16c
=23
16d
16E
16B
16c
16d
16E
16B
16c
16d
16B
16G#
16F#
=24
16E
16c
16A
16G#
16A
16c
16A
16G#
16A
16c
16A
16F#
=25
16D#
16c
16A
16G#
16A
16c
16A
16G#
16A
16c
16A
16F
=26
16D
16B
16G#
16F#
16G#
16B
16F
16E
16F
16B
16E
16D
=27
16C
16AA
16C
16E
16C
16AA
16C
16E
16A
16c
16A
16E
=28
16C
16AA
16C
16E
16C
16AA
16C
16E
16A
16c
16A
16F
=29
16D
16BB
16D
16G
16D
16BB
16D
16G
16B
16d
16B
16G
=30
16F
16BB
16F
16G
16F
16BB
16F
16G
16F
16d
16B
16G
=31
16E
16C
16E
16G
16E
16C
16E
16G
16B-
16d
16B-
16G
=32
16E
16C
16E
16G
16E
16C
16E
16G
16c
16B-
16A
16G
=33
16A
16F
16E
16F
16G
16A
16B
16c
16d
16A
16F
16D
=34
16G
16E
16D
16E
16F
16G
16A
16B
16c
16G
16E
16C
=35
16F
16D
16F
16G
16F
16D
16F
16G
16F
16C
16F
16G
=36
16F
16BB
16F
16G
16F
16AA
16F
16G
16F
16GG
16F
16G
=37
16E
16GG
16CC
16GG
16E
16GG
16CC
16GG
16E
16D
16C
16BB
=38
16AA
16E
16c
16E
16AA
16E
16c
16E
16AA
16G
16F
16E
=39
16F
16AA
16DD
16AA
16F
16AA
16DD
16AA
16F
16E
16D
16C
=40
16BB
16F#
16d
16F#
16BB
16F#
16d
16F#
16BB
16A
16G
16F#
=41
16G
16BB
16EE
16BB
16G
16BB
16EE
16BB
16G
16F
16E
16D
=42
16C
16G
16e
16G
16C
16G
16e
16G
16C
16B-
16A
16G
=43
16A
16C
16FF
16C
16A
16C
16FF
16C
16A
16G
16F
16E
=44
16D
16A
16f
16A
16D
16A
16f
16A
16D
16A
16B
16c
=45
16GG
16B
16f
16B
16GG
16B
16f
16B
16GG
16B
16f
16B
=46
16GG
16c
16e
16c
16GG
16c
16e
16c
16GG
16c
16e
16c
=47
16GG
16c
16d
16c
16GG
16B
16d
16B
16GG
16A
16d
16A
=48
16GG
16B
16d
16B
16GG
16B
16g
16B
16GG
16B
16d
16B
=49
16GG
16B
16c
16B
16GG
16A
16c
16A
16GG
16G
16c
16G
=50
16GG
16A
16c
16A
16GG
16A
16f
16A
16GG
16A
16c
16A
=51
16GG
16A
16B
16A
16GG
16G
16B
16G
16GG
16F
16B
16F
=52
16GG
16G
16B
16G
16GG
16G
16e
16G
16GG
16G
16B
16G
=53
16GG
16G
16A
16G
16GG
16F
16A
16F
16GG
16E
16A
16E
=54
16GG
16F
16A
16F
16GG
16F
16d
16F
16GG
16F
16A
16F
=55
16GG
16F
16B
16F
16GG
16F
16d
16F
16GG
16F
16B
16F
=56
16GG
16E
16c
16E
16GG
16E
16e
16E
16GG
16E
16c
16E
=57
16GG
16F
16B
16F
16GG
16F
16d
16F
16GG
16F
16B
16F
=58
16GG
16E-
16c
16E-
16GG
16E-
16e-
16E-
16GG
16E-
16c
16E-
=59
16GG
16F#
16c
16F#
16GG
16D
16c
16D
16GG
16E
16c
16E
=60
16GG
16F#
16c
16F#
16GG
16E
16c
16E
16GG
16F#
16c
16F#
=61
16GG
16G
16B
16A
16G
16F
16E
16D
16G
16E
16G
16D
=62
16G
16C#
16G
16A
16G
16C#
16G
16A
16G
16C#
16G
16A
=63
16F
16D
16A
16G
16F
16E
16D
16C
16F
16D
16F
16C
=64
16F
16BB
16F
16G
16F
16BB
16F
16G
16F
16BB
16F
16G
=65
16E
16C
16G
16F
16E
16D
16C
16BB
16C
16AA
16C
16GG
=66
16C
16FF#
16C
16D
16C
16FF#
16C
16D
16C
16FF#
16C
16D
=67
16BB
16GG
16BB
16D
16BB
16GG
16BB
16D
16BB
16FF
16BB
16D
=68
16BB-
16EE
16BB-
16C
16BB-
16EE
16BB-
16C
16BB-
16EE
16BB-
16C
=69
16AA
16FF
16AA
16C
16AA
16FF
16AA
16C
16AA
16EE
16AA
16C
=70
16BB
16DD
16BB
16F
16BB
16DD
16BB
16F
16BB
16DD
16BB
16F
=71
16E
16CC
16DD
16EE
16FF
16GG
16AA
16BB
16C
16D
16E
16F
=72
16G
16E
16C
16D
16E
16F
16G
16A
16B-
16A
16B-
16G
=73
16A
16F
16D
16E
16F
16G
16A
16B
16c
16B
16c
16A
=74
16B
16G
16E
16F
16G
16A
16B
16c
16d
16c
16d
16B
=75
16c
16A
16F
16G
16A
16B
16c
16d
16e
16d
16e
16c
=76
16B
16A
16B
16G
16F
16E
16F
16D
16BB
16AA
16BB
16GG
=77
4B
4r
4r
=78
16EE
16c
16B
16A
16G
16F
16E
16D
16C
16GG
16EE
16GG
=79
4A
4r
4r
=80
4B
4r
4r
=81
4c
4c
4B
=82
[4c
16c]
16E
16c
16d
16c
16E
16c
16d
=83
[4B-
16B-]
16E
16B-
16c
16B-
16E
16B-
16c
=84
[4A
16A]
16F
16E
16F
16A
16F
16E
16F
=85
[4B
16B]
16c
16B
16c
16B
16c
16B
16c
=86
2.B
=87
8c
16B
16A
16G
16F
16E
16D
16C
16GG
16EE
16GG
=88
4c
4r
4r
==
*-
